X:2595
T:Polska efter Johan Lundin
S:efter Johan Lundin
B:[[http://www.smus.se/earkiv/fmk/browselarge.php?lang=sw&katalogid=M+6&bildnr=00018|SMUS - katalog M6 bild 18]] nr 82
Z:Nils L
R:Slängpolska
O:Uppland
N:Jämför [[Musik/1195|+]], [[Musik/2558|+]], [[Musik/2759|+]] och [[http://130.226.229.125/grundtvig/spillemand/seStepGrafik.cfm?rec=36&bog_id=A:008&ejer=|Låt 38]] ur [[Notböcker/Christian Frederik & Povel Danckel Bast notbok]] från [[Platser/Danmark]].
M:3/4
L:1/8
K:D
DF Ad fa | af/a/ ge/g/ fa | DF Ad fa | a/b/a/g/ f2 e2 ::
fe/f/ gf ed | c/d/c/B/ A/c/A/G/ FA | fe/f/ gf ed | c/d/c/B/ A/B/A/G/ FA |
Fa Eg Df | f/e/d/c/ d2 D2 :|
(:musicend:)
(:music:)
